X:13595
T:Primrose Lass, The
R:reel
H:Other versions: #618, #104. In A: #489.
D:Matt Molloy: Stony Steps.
Z:id:hn-reel-651
M:C|
K:G
~b3a ~g3e|dB~B2 dega|1 ~b3a ~g3e|dBGA BA~A2:|2 bagf g2de|gedB ABGA||
|:Bd~d2 edgd|edgd edgd|Bd~d2 edge|1 gedB ABGA:|2 gedB ABG2||
